groups/aromatics/indene.svg

<?xml version='1.0' encoding='iso-8859-1'?>
<svg version='1.1' baseProfile='full'
              xmlns='http://www.w3.org/2000/svg'
                      xmlns:rdkit='http://www.rdkit.org/xml'
                      xmlns:xlink='http://www.w3.org/1999/xlink'
                  xml:space='preserve'
width='256px' height='256px' viewBox='0 0 256 256'>
<!-- END OF HEADER -->
<rect style='opacity:1.0;fill:#FFFFFF;stroke:none' width='256.0' height='256.0' x='0.0' y='0.0'> </rect>
<path class='bond-0 atom-0 atom-1' d='M 25.9,168.9 L 71.3,142.7' style='fill:none;fill-rule:evenodd;stroke:#000000;stroke-width:2.0px;stroke-linecap:butt;stroke-linejoin:miter;stroke-opacity:1' />
<path class='bond-1 atom-1 atom-2' d='M 71.3,142.7 L 71.3,90.2' style='fill:none;fill-rule:evenodd;stroke:#000000;stroke-width:2.0px;stroke-linecap:butt;stroke-linejoin:miter;stroke-opacity:1' />
<path class='bond-1 atom-1 atom-2' d='M 79.2,138.1 L 79.1,94.8' style='fill:none;fill-rule:evenodd;stroke:#000000;stroke-width:2.0px;stroke-linecap:butt;stroke-linejoin:miter;stroke-opacity:1' />
<path class='bond-2 atom-2 atom-3' d='M 71.3,90.2 L 116.7,64.0' style='fill:none;fill-rule:evenodd;stroke:#000000;stroke-width:2.0px;stroke-linecap:butt;stroke-linejoin:miter;stroke-opacity:1' />
<path class='bond-3 atom-3 atom-4' d='M 116.7,64.0 L 162.1,90.2' style='fill:none;fill-rule:evenodd;stroke:#000000;stroke-width:2.0px;stroke-linecap:butt;stroke-linejoin:miter;stroke-opacity:1' />
<path class='bond-3 atom-3 atom-4' d='M 116.7,73.1 L 154.2,94.7' style='fill:none;fill-rule:evenodd;stroke:#000000;stroke-width:2.0px;stroke-linecap:butt;stroke-linejoin:miter;stroke-opacity:1' />
<path class='bond-4 atom-4 atom-5' d='M 162.1,90.2 L 162.1,142.6' style='fill:none;fill-rule:evenodd;stroke:#000000;stroke-width:2.0px;stroke-linecap:butt;stroke-linejoin:miter;stroke-opacity:1' />
<path class='bond-5 atom-5 atom-6' d='M 162.1,142.6 L 116.7,168.9' style='fill:none;fill-rule:evenodd;stroke:#000000;stroke-width:2.0px;stroke-linecap:butt;stroke-linejoin:miter;stroke-opacity:1' />
<path class='bond-5 atom-5 atom-6' d='M 154.3,138.1 L 116.7,159.8' style='fill:none;fill-rule:evenodd;stroke:#000000;stroke-width:2.0px;stroke-linecap:butt;stroke-linejoin:miter;stroke-opacity:1' />
<path class='bond-6 atom-5 atom-7' d='M 162.1,142.6 L 212.0,158.8' style='fill:none;fill-rule:evenodd;stroke:#000000;stroke-width:2.0px;stroke-linecap:butt;stroke-linejoin:miter;stroke-opacity:1' />
<path class='bond-7 atom-7 atom-8' d='M 212.0,158.8 L 242.8,116.3' style='fill:none;fill-rule:evenodd;stroke:#000000;stroke-width:2.0px;stroke-linecap:butt;stroke-linejoin:miter;stroke-opacity:1' />
<path class='bond-8 atom-8 atom-9' d='M 242.8,116.3 L 211.9,73.9' style='fill:none;fill-rule:evenodd;stroke:#000000;stroke-width:2.0px;stroke-linecap:butt;stroke-linejoin:miter;stroke-opacity:1' />
<path class='bond-8 atom-8 atom-9' d='M 233.1,116.3 L 208.9,83.2' style='fill:none;fill-rule:evenodd;stroke:#000000;stroke-width:2.0px;stroke-linecap:butt;stroke-linejoin:miter;stroke-opacity:1' />
<path class='bond-9 atom-6 atom-1' d='M 116.7,168.9 L 71.3,142.7' style='fill:none;fill-rule:evenodd;stroke:#000000;stroke-width:2.0px;stroke-linecap:butt;stroke-linejoin:miter;stroke-opacity:1' />
<path class='bond-10 atom-9 atom-4' d='M 211.9,73.9 L 162.1,90.2' style='fill:none;fill-rule:evenodd;stroke:#000000;stroke-width:2.0px;stroke-linecap:butt;stroke-linejoin:miter;stroke-opacity:1' />
<path d='M 71.3,92.9 L 71.3,90.2 L 73.5,88.9' style='fill:none;stroke:#000000;stroke-width:2.0px;stroke-linecap:butt;stroke-linejoin:miter;stroke-miterlimit:10;stroke-opacity:1;' />
<path d='M 114.4,65.3 L 116.7,64.0 L 118.9,65.3' style='fill:none;stroke:#000000;stroke-width:2.0px;stroke-linecap:butt;stroke-linejoin:miter;stroke-miterlimit:10;stroke-opacity:1;' />
<path d='M 119.0,167.5 L 116.7,168.9 L 114.5,167.5' style='fill:none;stroke:#000000;stroke-width:2.0px;stroke-linecap:butt;stroke-linejoin:miter;stroke-miterlimit:10;stroke-opacity:1;' />
<path d='M 209.5,158.0 L 212.0,158.8 L 213.5,156.6' style='fill:none;stroke:#000000;stroke-width:2.0px;stroke-linecap:butt;stroke-linejoin:miter;stroke-miterlimit:10;stroke-opacity:1;' />
<path d='M 241.3,118.4 L 242.8,116.3 L 241.3,114.2' style='fill:none;stroke:#000000;stroke-width:2.0px;stroke-linecap:butt;stroke-linejoin:miter;stroke-miterlimit:10;stroke-opacity:1;' />
<path d='M 213.5,76.0 L 211.9,73.9 L 209.5,74.7' style='fill:none;stroke:#000000;stroke-width:2.0px;stroke-linecap:butt;stroke-linejoin:miter;stroke-miterlimit:10;stroke-opacity:1;' />
<path class='atom-1' d='M39.0511,191.62 C40.7533,190.636 39.4407,188.366 37.7386,189.351 C36.0364,190.335 34.7239,188.066 36.426,187.081 C38.1282,186.097 36.8156,183.827 35.1135,184.812 C33.4113,185.796 32.0988,183.526 33.8009,182.542 C35.5031,181.558 34.1905,179.288 32.4884,180.272 C30.7862,181.257 29.4737,178.987 31.1758,178.003 C32.8779,177.019 31.5654,174.749 29.8632,175.733 C28.1611,176.718 26.8485,174.448 28.5507,173.464 C30.2528,172.479 28.9403,170.21 27.2381,171.194 C25.536,172.179 24.2234,169.909 25.9256,168.925 C27.6277,167.94 26.3152,165.671 24.613,166.655 C22.9109,167.639 21.5983,165.37 23.3005,164.385 C25.0026,163.401 23.69,161.131 21.9879,162.116 C20.2858,163.1 18.9732,160.831 20.6753,159.846 C22.3775,158.862 21.0649,156.592 19.3628,157.577 C17.6606,158.561 16.3481,156.292 18.0502,155.307 C19.7524,154.323 18.4398,152.053 16.7377,153.038 C15.0355,154.022 13.723,151.752 15.4251,150.768 C17.1273,149.784 15.8147,147.514 14.1126,148.498 C12.4104,149.483 11.0979,147.213 12.8,146.229' style='fill:none;stroke:#7F7F7F;stroke-width:2.0px;stroke-linecap:butt;stroke-linejoin:miter;stroke-opacity:1' />
</svg>

<svg height="256" viewBox="0 0 256 256" width="256" xmlns="http://www.w3.org/2000/svg"><path d="m0 0h256v256h-256z" fill="#fff"/><g fill="none" stroke-width="2"><path d="m25.9 168.9 45.4-26.2" stroke="#000"/><path d="m71.3 142.7v-52.5" stroke="#000"/><path d="m79.2 138.1-.1-43.3" stroke="#000"/><path d="m71.3 90.2 45.4-26.2" stroke="#000"/><path d="m116.7 64 45.4 26.2" stroke="#000"/><path d="m116.7 73.1 37.5 21.6" stroke="#000"/><path d="m162.1 90.2v52.4" stroke="#000"/><path d="m162.1 142.6-45.4 26.3" stroke="#000"/><path d="m154.3 138.1-37.6 21.7" stroke="#000"/><path d="m162.1 142.6 49.9 16.2" stroke="#000"/><path d="m212 158.8 30.8-42.5" stroke="#000"/><path d="m242.8 116.3-30.9-42.4" stroke="#000"/><path d="m233.1 116.3-24.2-33.1" stroke="#000"/><path d="m116.7 168.9-45.4-26.2" stroke="#000"/><path d="m211.9 73.9-49.8 16.3" stroke="#000"/><path d="m71.3 92.9v-2.7l2.2-1.3" stroke="#000" stroke-miterlimit="10"/><path d="m114.4 65.3 2.3-1.3 2.2 1.3" stroke="#000" stroke-miterlimit="10"/><path d="m119 167.5-2.3 1.4-2.2-1.4" stroke="#000" stroke-miterlimit="10"/><path d="m209.5 158 2.5.8 1.5-2.2" stroke="#000" stroke-miterlimit="10"/><path d="m241.3 118.4 1.5-2.1-1.5-2.1" stroke="#000" stroke-miterlimit="10"/><path d="m213.5 76-1.6-2.1-2.4.8" stroke="#000" stroke-miterlimit="10"/><path d="m39.051 191.62c1.702-.984.39-3.254-1.312-2.269-1.703.984-3.015-1.285-1.313-2.27 1.702-.984.39-3.254-1.312-2.269-1.703.984-3.015-1.286-1.313-2.27s.39-3.254-1.313-2.27c-1.702.985-3.014-1.285-1.312-2.269s.389-3.254-1.313-2.27c-1.702.985-3.014-1.285-1.312-2.269 1.702-.985.389-3.254-1.313-2.27-1.702.985-3.015-1.285-1.312-2.269 1.702-.985.389-3.254-1.313-2.27s-3.015-1.285-1.312-2.27c1.702-.984.389-3.254-1.313-2.269-1.702.984-3.015-1.285-1.313-2.27 1.703-.984.39-3.254-1.312-2.269-1.702.984-3.015-1.285-1.313-2.27 1.702-.984.39-3.254-1.312-2.269-1.702.984-3.015-1.286-1.313-2.27s.39-3.254-1.312-2.27c-1.703.985-3.015-1.285-1.313-2.269" stroke="#7f7f7f"/></g></svg>
